X:1
T:Corwin, 86.866 D
T:Corwin, 86.866 D
T:Joseph W. Lerman, 1908
T:Public Domain Courtesy of the Cyber Hymnal™
C:Joseph W. Lerman, 1908
Z:Public Domain
Z:Courtesy of the Cyber Hymnal™
%%score ( 1 2 ) ( 3 4 )
L:1/8
M:4/4
K:G
V:1 treble 
V:2 treble 
V:3 bass 
V:4 bass 
V:1
 D2 | G2 D2 B2 G2 | d3 B G2 [DG]2 | [Dc]2 [DB]2 [EA]2 [EG]2 | [DF]6 D2 | G2 D2 B2 G2 | %6
 d3 [Fd] [Gd]2 [G^c]2 | [FB]3 [FB] [F^c]2 [Fc]2 | [Fd]6 (^cB) | [FA]3 [DF] [B,F]2 [^CE]2 | D6 D2 | %11
 [DF]2 [DF]2 [DG]2 [DG]2 | [GB]3 [FA] [FA]2 [Fd]2 | [Fc]2 [FB]2 [FA]2 [^E^G]2 | [FA]6 [FA]2 | %15
 [EG]3 [EG] [FA]2 [GB]2 | [Fc]2 [Gd]2 [Ge]2 [Ac]2 | [GB]3 [GB] [FB]2 [FA]2 | d4 c2 [Ge]2 | %19
 [Gd]3 [DG] [EG]2 [FA]2 | [B,G]6 |] %21
V:2
 D2 | G2 D2 B2 G2 | d3 B G2 x2 | x8 | x6 D2 | G2 D2 B2 G2 | d3 x5 | x8 | x6 ^E2 | x8 | x8 | x8 | %12
 x8 | x8 | x8 | x8 | x8 | x8 | E6 x2 | x8 | x6 |] %21
V:3
 D,2 | G,2 D,2 B,2 G,2 | D3 B, G,2 [B,,G,]2 | [A,,F,]2 [G,,G,]2 [C,G,]2 [^C,A,]2 | [D,A,]6 D,2 | %5
 G,2 D,2 B,2 G,2 | D3 [CD] [B,D]2 [E,E]2 | [F,D]3 [F,D] [F,^A,]2 [F,A,]2 | [B,,B,]6 [^G,,D]2 | %9
 [A,,D]3 [A,,A,] [A,,^G,]2 [A,,=G,]2 | [D,F,]6 [D,F,]2 | [D,A,]2 [D,A,]2 [D,B,]2 [D,B,]2 | %12
 [D,D]3 [D,D] [D,D]2 [D,A,]2 | [D,E]2 [D,D]2 [D,C]2 [D,B,]2 | (C2 A,2 D2) [D,C]2 | %15
 [E,B,]3 [E,B,] [D,D]2 [G,D]2 | [A,D]2 [B,D]2 C2 [A,E]2 | [D,D]3 [D,D] [D,D]2 [D,C]2 | %18
 ^G,4 [A,,A,]2 (=G,A,) | [D,B,]3 [D,B,] [A,,C]2 [D,C]2 | [G,,G,]6 |] %21
V:4
 D,2 | G,2 D,2 B,2 G,2 | D3 B, G,2 x2 | x8 | x6 D,2 | G,2 D,2 B,2 G,2 | D3 x5 | x8 | x8 | x8 | x8 | %11
 x8 | x8 | x8 | D,6 x2 | x8 | x8 | x8 | (B,,2 E,2) C,2 x2 | x8 | x6 |] %21

